!!!OTL: Nannerl.
!!!OTL-incipit: WENN D IN HIMMEL SAGT ER
!!!COM: Volksweise
!!!ARE: Europa, Mitteleuropa, Deutschland
!!!SCT: F0927
!!!TXL: @@BAR
!!!YEM: Copyright 1995, estate of Helmut Schaffrath.
**kern	**text
*ICvox	*
*clefG2	*
*M3/4	*
*k[b-e-a-]	*
*E-:	*
{8.cc	1._Wenn
16b-	d'in
=1	=1
8g	Himmel,
8e-	.
8e-	ſagt
8e-	er,
8cc	ein
8b-	willſt
=2	=2
8a-	komme,
8f	.
8f	ſagt
8f}	er,
{8.b-	mußt
16b-	die
=3	=3
8dd	Nannerl,
8dd	.
8dd	ſagt
8cc	er,
8b-/	du
8a-	mit
=4	=4
8g	nehme,
8e-	.
8e-	ſagt
8e-}	er,
{8b-	darfſt
8b-	nit
=5	=5
8g	ei-
8e-	-ni,
8e-	ſagt
8e-	er,
8ee-	bei
8ee-	der
=6	=6
8ee-/L	Thür,
8fJ	.
8f	ſagt
8f}	er,
{8ee-	nimmſt
8ee-	die
=7	=7
8ee-	Nannerl,
8dd	.
8cc	ſagt
!LO:TX:a:t=rit.	!
8b-	er,
8a-	nit
8d	mit
=8	=8
2e-}	dir.
==	==
!!!AGN: Liebes - Lied
!!!ONB: ESAC (Essen Associative Code) Database: FINK
!!!AMT: simple triple
!!!AIN: vox
!!!EED: Helmut Schaffrath
!!!EEV: 1.0
!!!GTL: Minnelieder
!!Text: Volkslied
!!!source: Musikalischer Hausschatz der Deutschen. Eine Sammlung von über 1000 Liedern und Gesängen mit Singstimmen und Klavierbegleitung. Leipzig, Litterarisches Verlags-Haus.
!!!page: 689
!!!URL-scan: https://www.digitale-sammlungen.de/en/view/bsb11144622?page=599
!!!ENC: Anna Maria Matuszewska
!!!EEV: 2024/08/08
*-	*-